X: 7011
T: Chief O'Neill's Favourite
R: hornpipe
M: 4/4
K: Dmajor
de|~f3g aage|fdef dcAG|FDAD (3EFG AB|=cAd^c A2 de|
~f3g a2ge|fdef dcAG|FDAF GBAG|F2 D2 D2:|
|:zE|=FADE =FGAB|=c2 dB cAGB|A2de ffed|cAdc A2 de|
~f3g aage|fdef dcAG|FDAF (3GAB AG|F2 D2 D2:|

